Frontend/src/assets/svg/ki.svg

<?xml version="1.0" encoding="UTF-8"?>
<svg xmlns="http://www.w3.org/2000/svg" xmlns:xlink="http://www.w3.org/1999/xlink" width="1000px" height="667px" viewBox="0 0 1000 667" version="1.1">
<g id="surface1">
<path style=" stroke:none;fill-rule:nonzero;fill:rgb(78.431374%,6.27451%,6.27451%);fill-opacity:1;" d="M 0 0 L 1000 0 L 1000 360.179688 L 0 360.179688 Z M 0 0 "/>
<path style="fill-rule:nonzero;fill:rgb(97.254902%,81.568629%,0%);fill-opacity:1;stroke-width:0.46;stroke-linecap:butt;stroke-linejoin:miter;stroke:rgb(0%,0%,0%);stroke-opacity:1;stroke-miterlimit:22.9256;" d="M 305.749219 27.33965 C 286.671094 19.44926 274.989844 17.999789 261.939844 17.869776 C 243.039844 17.999789 234.021094 26.120338 216 26.870549 C 223.139062 34.560649 249.021094 36.440569 259.928906 26.339955 C 276.15 28.030126 279.829687 32.410162 284.179688 37.860171 C 277.410937 36.790199 269.610937 34.840002 263.139844 41.999508 C 257.678906 43.099349 255.15 41.999508 245.810156 41.999508 C 241.450781 41.999508 239.939062 44.139454 240 47.999438 C 242.819531 44.100801 262.310156 46.400628 267.089063 47.999438 C 270.759375 49.229292 274.659375 54.319129 279.309375 55.150159 C 291.499219 57.319973 308.990625 50.94933 325.120313 46.609703 L 360 41.999508 L 336.070312 41.999508 L 366 35.999578 L 333.459375 35.999578 C 332.770312 35.210715 331.120313 34.189936 329.800781 33.320254 C 338.170312 27.92998 345.569531 18.129802 347.460938 13.400136 C 362.55 13.250796 372.290625 11.85052 384 9.109703 C 306.820312 0.569247 324.389062 9.780852 305.749219 27.33965 Z M 305.749219 27.33965 " transform="matrix(1.666667,0,0,2.223333,0,0)"/>
<path style="fill-rule:nonzero;fill:rgb(0%,0%,0%);fill-opacity:1;stroke-width:0.15;stroke-linecap:butt;stroke-linejoin:miter;stroke:rgb(0%,0%,0%);stroke-opacity:1;stroke-miterlimit:22.926001;" d="M 270.060937 39.88943 C 270.890625 39.88943 271.560937 40.560579 271.560937 41.389852 C 271.560937 42.219125 270.890625 42.890274 270.060937 42.890274 C 269.240625 42.890274 268.560937 42.219125 268.560937 41.389852 C 268.560937 40.560579 269.240625 39.88943 270.060937 39.88943 Z M 270.060937 39.88943 " transform="matrix(1.666667,0,0,2.223333,0,0)"/>
<path style="fill:none;stroke-width:0.46;stroke-linecap:butt;stroke-linejoin:miter;stroke:rgb(0%,0%,0%);stroke-opacity:1;stroke-miterlimit:22.9256;" d="M 290.130469 38.29062 C 290.130469 38.29062 283.860937 41.999508 279.700781 41.999508 M 325.120313 46.609703 C 325.120313 46.609703 330.850781 41.999508 336.070312 41.999508 M 233.819531 24.60059 C 233.819531 24.60059 238.478906 22.160209 240.679688 21.510143 M 253.129687 21.120104 C 253.129687 21.120104 260.519531 17.929512 268.750781 18.089393 M 273.110156 21.900183 C 273.110156 21.900183 282.799219 20.269748 291.75 22.260354 M 284.25 24.240419 C 284.25 24.240419 292.289062 22.889337 300 25.069692 M 292.521094 26.689585 C 292.521094 26.689585 300.710156 26.800272 304.778906 28.379755 M 216 26.870549 C 216 26.870549 227.489062 30.01019 236.828906 25.519467 M 217.460156 28.230416 C 217.460156 28.230416 232.380469 31.909436 239.200781 25.080233 M 222.459375 30.809595 C 222.459375 30.809595 233.7 34.430636 242.540625 25.090775 M 232.900781 33.079554 C 232.900781 33.079554 241.980469 30.479292 245.421094 25.129427 M 240 33.23065 C 240 33.23065 246.089062 29.010495 248.280469 25.250656 M 318.459375 28.469359 C 318.459375 28.469359 320.840625 31.459661 329.800781 33.320254 M 320.039062 27.060298 C 320.039062 27.060298 323.889844 30.90974 331.910156 31.8497 M 321.979688 25.250656 C 321.979688 25.250656 325.889062 28.609914 334.399219 29.860851 M 323.910937 23.319785 C 323.910937 23.319785 329.889844 27.309783 336.700781 27.770099 M 326.271094 20.800342 C 326.271094 20.800342 330.459375 24.70952 338.770312 25.679348 M 328.028906 18.790409 C 328.028906 18.790409 332.939062 23.010565 340.659375 23.590353 M 329.760938 16.690873 C 329.760938 16.690873 332.770312 20.169603 342.700781 21.079695 M 331.521094 14.419158 C 331.521094 14.419158 334.870313 18.099934 344.299219 18.899339 M 332.889844 12.54978 C 332.889844 12.54978 338.789062 17.000094 345.621094 16.91049 M 334.059375 10.850825 C 334.059375 10.850825 341.859375 15.52954 346.509375 15.380201 M 335.479688 8.689796 C 335.479688 8.689796 341.678906 12.54978 347.460938 13.400136 M 308.840625 30.379146 C 308.840625 30.379146 311.339063 32.269607 313.680469 32.190545 M 310.279687 28.980627 C 310.279687 28.980627 312.45 30.830678 315.428906 30.820137 M 312.030469 27.260588 C 312.030469 27.260588 314.489062 29.560415 317.439844 29.140508 M 313.689844 25.600286 C 313.689844 25.600286 316.628906 27.599677 319.260938 27.539941 M 315.529687 23.709825 C 315.529687 23.709825 317.709375 25.600286 321.159375 25.779493 M 317.170312 21.629615 C 317.170312 21.629615 319.729688 23.899574 322.989844 23.980393 M 318.9 20.129193 C 318.9 20.129193 321.379687 21.719219 324.890625 22.019654 M 320.470312 18.379287 C 320.470312 18.379287 323.819531 19.559947 326.889844 19.849841 M 322.279687 16.239341 C 322.279687 16.239341 324.590625 17.859234 328.689844 17.760846 M 323.910937 14.099396 C 323.910937 14.099396 326.650781 15.919579 330.171094 15.959989 M 325.110937 12.070137 C 325.110937 12.070137 328.790625 14.129263 331.959375 13.670704 M 326.449219 9.640297 C 326.449219 9.640297 328.778906 12.189608 333.119531 12.100005 M 327.389062 8.540456 C 327.389062 8.540456 331.570312 10.889477 334.399219 10.290363 M 329.160937 7.210457 C 329.160937 7.210457 332.329687 9.139571 335.228906 9.060509 M 332.378906 6.24063 C 332.378906 6.24063 338.029687 9.120245 345.670312 5.99993 M 337.190625 8.289215 C 337.190625 8.289215 348.609375 10.91056 353.559375 6.330233 M 346.150781 8.969148 C 346.150781 8.969148 354 9.789636 362.779687 7.010167 M 351.370313 9.020099 C 351.370313 9.020099 363.290625 11.420071 384 9.109703 M 243.239062 32.960082 C 243.239062 32.960082 248.571094 29.449728 250.778906 25.410537 M 247.230469 32.310017 C 247.230469 32.310017 251.519531 28.149597 252.771094 25.570418 M 251.189062 31.240044 C 251.189062 31.240044 254.721094 28.070535 255.499219 25.84977 M 233.950781 25.660022 C 233.950781 25.660022 241.610156 23.989177 259.928906 26.339955 M 241.028906 22.599442 C 241.028906 22.599442 247.450781 19.489669 253.169531 18.539168 M 247.410937 21.309853 C 247.410937 21.309853 252.100781 19.09963 259.019531 17.999789 M 258.070312 20.889946 C 258.070312 20.889946 264.560156 18.119261 272.500781 18.379287 M 266.280469 20.93914 C 266.280469 20.93914 275.179688 18.95029 283.380469 20.069457 M 290.109375 25.289308 C 290.109375 25.289308 296.899219 24.980088 304.710938 26.919743 M 278.500781 22.56079 C 278.500781 22.56079 288.229688 22.040737 294.9 23.270591 M 338.669531 8.570324 C 338.669531 8.570324 342.030469 11.479807 351.389062 13.329859 M 343.95 9.039426 C 343.95 9.039426 349.209375 12.029727 357.510938 13.069832 M 349.469531 9.079835 C 349.469531 9.079835 356.85 12.289754 364.65 12.490044 M 357.639844 9.780852 C 357.639844 9.780852 365.160937 11.590494 374.479688 11.100309 M 262.410937 20.779259 C 262.410937 20.779259 267.510938 18.679723 276.550781 18.850145 M 296.039062 28.420165 C 296.039062 28.420165 299.1 28.049452 302.899219 29.860851 " transform="matrix(1.666667,0,0,2.223333,0,0)"/>
<path style="fill:none;stroke-width:0.46;stroke-linecap:butt;stroke-linejoin:miter;stroke:rgb(0%,0%,0%);stroke-opacity:1;stroke-miterlimit:22.9256;" d="M 284.179688 37.860171 C 286.289062 38.190475 288.3 38.43996 290.130469 38.29062 C 297.290625 34.379685 302.179688 30.70945 305.749219 27.33965 " transform="matrix(1.666667,0,0,2.223333,0,0)"/>
<path style="fill-rule:nonzero;fill:rgb(97.254902%,81.568629%,0%);fill-opacity:1;stroke-width:0.46;stroke-linecap:butt;stroke-linejoin:miter;stroke:rgb(0%,0%,0%);stroke-opacity:1;stroke-miterlimit:22.926001;" d="M 290.629381 105.869667 C 287.917461 91.852508 291.3266 77.342793 299.999341 66.000629 C 297.287615 80.017039 300.697114 94.528075 309.370249 105.87001 " transform="matrix(0.53419,-2.106039,1.57874,0.712609,93.459712,867.484656)"/>
<path style="fill-rule:nonzero;fill:rgb(97.254902%,81.568629%,0%);fill-opacity:1;stroke-width:0.46;stroke-linecap:butt;stroke-linejoin:miter;stroke:rgb(0%,0%,0%);stroke-opacity:1;stroke-miterlimit:22.926001;" d="M 290.629817 105.871033 L 300.000114 62.999377 L 309.369991 105.869283 " transform="matrix(0.153777,-2.213849,1.659557,0.205139,194.975918,978.993182)"/>
<path style="fill-rule:nonzero;fill:rgb(97.254902%,81.568629%,0%);fill-opacity:1;stroke-width:0.46;stroke-linecap:butt;stroke-linejoin:miter;stroke:rgb(0%,0%,0%);stroke-opacity:1;stroke-miterlimit:22.926001;" d="M 290.629567 105.870376 C 287.918244 91.8518 291.325879 77.34228 300.000793 66.000305 C 297.287997 80.01795 300.698122 94.527754 309.369555 105.870153 " transform="matrix(1.068502,-1.706311,1.279094,1.425382,-20.089313,636.373648)"/>
<path style="fill-rule:nonzero;fill:rgb(97.254902%,81.568629%,0%);fill-opacity:1;stroke-width:0.46;stroke-linecap:butt;stroke-linejoin:miter;stroke:rgb(0%,0%,0%);stroke-opacity:1;stroke-miterlimit:22.926001;" d="M 290.630627 105.869993 L 299.999866 63.000136 L 309.368911 105.869719 " transform="matrix(0.742986,-1.990187,1.491895,0.991143,44.368622,789.277842)"/>
<path style="fill-rule:nonzero;fill:rgb(97.254902%,81.568629%,0%);fill-opacity:1;stroke-width:0.46;stroke-linecap:butt;stroke-linejoin:miter;stroke:rgb(0%,0%,0%);stroke-opacity:1;stroke-miterlimit:22.926001;" d="M 290.630622 105.869981 C 287.916824 91.8509 291.326445 77.342604 299.999837 65.999782 C 297.287147 80.018231 300.69704 94.526877 309.370242 105.869697 " transform="matrix(1.45832,-1.0764,0.806896,1.945398,-63.37171,366.277825)"/>
<path style="fill-rule:nonzero;fill:rgb(97.254902%,81.568629%,0%);fill-opacity:1;stroke-width:0.46;stroke-linecap:butt;stroke-linejoin:miter;stroke:rgb(0%,0%,0%);stroke-opacity:1;stroke-miterlimit:22.926001;" d="M 290.62985 105.869124 L 299.99955 62.999833 L 309.370175 105.870054 " transform="matrix(1.231622,-1.497938,1.122892,1.642983,-44.657593,539.915967)"/>
<path style="fill-rule:nonzero;fill:rgb(97.254902%,81.568629%,0%);fill-opacity:1;stroke-width:0.46;stroke-linecap:butt;stroke-linejoin:miter;stroke:rgb(0%,0%,0%);stroke-opacity:1;stroke-miterlimit:22.926001;" d="M 290.63013 105.869434 C 287.917359 91.852135 291.327463 77.342798 299.999054 65.999019 C 297.287422 80.018569 300.697015 94.528229 309.369606 105.869643 " transform="matrix(1.651341,-0.300818,0.225501,2.202889,-30.580455,93.434839)"/>
<path style="fill-rule:nonzero;fill:rgb(97.254902%,81.568629%,0%);fill-opacity:1;stroke-width:0.46;stroke-linecap:butt;stroke-linejoin:miter;stroke:rgb(0%,0%,0%);stroke-opacity:1;stroke-miterlimit:22.926001;" d="M 290.63032 105.870953 L 299.99963 62.999443 L 309.370686 105.871158 " transform="matrix(1.554125,-0.803144,0.602057,2.073203,-60.158443,264.363419)"/>
<path style="fill-rule:nonzero;fill:rgb(97.254902%,81.568629%,0%);fill-opacity:1;stroke-width:0.46;stroke-linecap:butt;stroke-linejoin:miter;stroke:rgb(0%,0%,0%);stroke-opacity:1;stroke-miterlimit:22.926001;" d="M 290.629195 105.869633 C 287.917504 91.85185 291.326792 77.34348 300.000691 66.000124 C 297.286419 80.017762 300.696227 94.528418 309.369517 105.870245 " transform="matrix(1.621266,0.515404,-0.38636,2.162769,73.892247,-145.173097)"/>
<path style="fill-rule:nonzero;fill:rgb(97.254902%,81.568629%,0%);fill-opacity:1;stroke-width:0.46;stroke-linecap:butt;stroke-linejoin:miter;stroke:rgb(0%,0%,0%);stroke-opacity:1;stroke-miterlimit:22.926001;" d="M 290.630877 105.869985 L 300.000542 63.00014 L 309.369158 105.870434 " transform="matrix(1.666667,0.000155133,-0.000116291,2.223333,0.0181427,-0.046539)"/>
<path style="fill-rule:nonzero;fill:rgb(97.254902%,81.568629%,0%);fill-opacity:1;stroke-width:0.46;stroke-linecap:butt;stroke-linejoin:miter;stroke:rgb(0%,0%,0%);stroke-opacity:1;stroke-miterlimit:22.926001;" d="M 290.630594 105.869561 C 287.91759 91.851263 291.328069 77.342589 300.000099 65.999531 C 297.28809 80.018295 300.697891 94.527237 309.36955 105.870684 " transform="matrix(1.372323,1.261675,-0.945783,1.830679,235.845222,-317.248531)"/>
<path style="fill-rule:nonzero;fill:rgb(97.254902%,81.568629%,0%);fill-opacity:1;stroke-width:0.46;stroke-linecap:butt;stroke-linejoin:miter;stroke:rgb(0%,0%,0%);stroke-opacity:1;stroke-miterlimit:22.926001;" d="M 290.630435 105.869191 L 299.999256 63.001137 L 309.370801 105.869642 " transform="matrix(1.554146,0.803071,-0.602002,2.073231,127.668447,-217.505408)"/>
<path style="fill-rule:nonzero;fill:rgb(97.254902%,81.568629%,0%);fill-opacity:1;stroke-width:0.46;stroke-linecap:butt;stroke-linejoin:miter;stroke:rgb(0%,0%,0%);stroke-opacity:1;stroke-miterlimit:22.926001;" d="M 290.630502 105.869813 C 287.917104 91.850615 291.326878 77.341495 300.000628 65.999162 C 297.287643 80.018631 300.696056 94.527989 309.369625 105.870853 " transform="matrix(0.937912,1.837872,-1.377715,1.251175,433.5499,-399.704808)"/>
<path style="fill-rule:nonzero;fill:rgb(97.254902%,81.568629%,0%);fill-opacity:1;stroke-width:0.46;stroke-linecap:butt;stroke-linejoin:miter;stroke:rgb(0%,0%,0%);stroke-opacity:1;stroke-miterlimit:22.926001;" d="M 290.629848 105.871305 L 300.000791 63.000113 L 309.368989 105.869733 " transform="matrix(1.231661,1.49788,-1.122849,1.643036,305.66615,-358.837621)"/>
<path style="fill-rule:nonzero;fill:rgb(97.254902%,81.568629%,0%);fill-opacity:1;stroke-width:0.46;stroke-linecap:butt;stroke-linejoin:miter;stroke:rgb(0%,0%,0%);stroke-opacity:1;stroke-miterlimit:22.926001;" d="M 290.629043 105.870352 C 287.917953 91.851535 291.326693 77.342622 299.99958 65.999505 C 297.28723 80.018 300.697592 94.528733 309.370679 105.869823 " transform="matrix(0.376789,2.165772,-1.623517,0.502636,640.231991,-381.302841)"/>
<path style="fill-rule:nonzero;fill:rgb(97.254902%,81.568629%,0%);fill-opacity:1;stroke-width:0.46;stroke-linecap:butt;stroke-linejoin:miter;stroke:rgb(0%,0%,0%);stroke-opacity:1;stroke-miterlimit:22.926001;" d="M 290.630901 105.869179 L 300.000254 63.001422 L 309.369713 105.86972 " transform="matrix(0.742778,1.990326,-1.491998,0.990866,509.918367,-404.83275)"/>
<path style="fill-rule:nonzero;fill:rgb(97.254902%,81.568629%,0%);fill-opacity:1;stroke-width:0.46;stroke-linecap:butt;stroke-linejoin:miter;stroke:rgb(0%,0%,0%);stroke-opacity:1;stroke-miterlimit:22.926001;" d="M 290.629235 105.869607 C 287.918113 91.852442 291.326844 77.34264 299.999279 65.998993 C 297.287448 80.018942 300.696912 94.528517 309.369542 105.869184 " transform="matrix(-0.23495,2.201131,-1.650023,-0.313424,827.888722,-264.605104)"/>
<path style="fill-rule:nonzero;fill:rgb(97.254902%,81.568629%,0%);fill-opacity:1;stroke-width:0.46;stroke-linecap:butt;stroke-linejoin:miter;stroke:rgb(0%,0%,0%);stroke-opacity:1;stroke-miterlimit:22.926001;" d="M 290.629799 105.871126 L 299.999644 62.999053 L 309.370405 105.868865 " transform="matrix(0.153835,2.213842,-1.659552,0.205216,712.739513,-349.326403)"/>
<path style="fill-rule:nonzero;fill:rgb(97.254902%,81.568629%,0%);fill-opacity:1;stroke-width:0.46;stroke-linecap:butt;stroke-linejoin:miter;stroke:rgb(0%,0%,0%);stroke-opacity:1;stroke-miterlimit:22.926001;" d="M 351 155.99993 C 351 184.167096 328.167188 207.000211 300 207.000211 C 271.832812 207.000211 249 184.167096 249 155.99993 C 249 127.832763 271.832812 104.999649 300 104.999649 C 328.167188 104.999649 351 127.832763 351 155.99993 Z M 351 155.99993 " transform="matrix(1.666667,0,0,2.223333,0,0)"/>
<path style=" stroke:none;fill-rule:nonzero;fill:rgb(9.411765%,18.82353%,43.921569%);fill-opacity:1;" d="M 0 360.179688 L 1000 360.179688 L 1000 667 L 0 667 Z M 0 360.179688 "/>
<path style="fill:none;stroke-width:24;stroke-linecap:butt;stroke-linejoin:miter;stroke:rgb(100%,100%,100%);stroke-opacity:1;stroke-miterlimit:4;" d="M -36 167.999789 C -16.000781 160.000469 4.000781 160.000469 24 167.999789 C 43.999219 176.000867 64.000781 176.000867 84 167.999789 C 103.999219 160.000469 124.000781 160.000469 144 167.999789 C 163.999219 176.000867 184.000781 176.000867 204 167.999789 C 223.999219 160.000469 244.999219 160.000469 267 167.999789 C 289.000781 176.000867 310.999219 176.000867 333 167.999789 C 355.000781 160.000469 376.000781 160.000469 396 167.999789 C 415.999219 176.000867 436.000781 176.000867 456 167.999789 C 475.999219 160.000469 496.000781 160.000469 516 167.999789 C 535.999219 176.000867 556.000781 176.000867 576 167.999789 C 595.999219 160.000469 616.000781 160.000469 636 167.999789 " transform="matrix(1.666667,0,0,2.223333,0,0)"/>
<path style="fill:none;stroke-width:24;stroke-linecap:butt;stroke-linejoin:miter;stroke:rgb(100%,100%,100%);stroke-opacity:1;stroke-miterlimit:4;" d="M -36 167.999227 C -16.000781 159.999906 4.000781 159.999906 24 167.999227 C 43.999219 176.000305 64.000781 176.000305 84 167.999227 C 103.999219 159.999906 124.000781 159.999906 144 167.999227 C 163.999219 176.000305 184.000781 176.000305 204 167.999227 C 223.999219 159.999906 244.999219 159.999906 267 167.999227 C 289.000781 176.000305 310.999219 176.000305 333 167.999227 C 355.000781 159.999906 376.000781 159.999906 396 167.999227 C 415.999219 176.000305 436.000781 176.000305 456 167.999227 C 475.999219 159.999906 496.000781 159.999906 516 167.999227 C 535.999219 176.000305 556.000781 176.000305 576 167.999227 C 595.999219 159.999906 616.000781 159.999906 636 167.999227 " transform="matrix(1.666667,0,0,2.223333,0,106.72)"/>
<path style="fill:none;stroke-width:24;stroke-linecap:butt;stroke-linejoin:miter;stroke:rgb(100%,100%,100%);stroke-opacity:1;stroke-miterlimit:4;" d="M -36 168.000422 C -16.000781 159.999344 4.000781 159.999344 24 168.000422 C 43.999219 175.999742 64.000781 175.999742 84 168.000422 C 103.999219 159.999344 124.000781 159.999344 144 168.000422 C 163.999219 175.999742 184.000781 175.999742 204 168.000422 C 223.999219 159.999344 244.999219 159.999344 267 168.000422 C 289.000781 175.999742 310.999219 175.999742 333 168.000422 C 355.000781 159.999344 376.000781 159.999344 396 168.000422 C 415.999219 175.999742 436.000781 175.999742 456 168.000422 C 475.999219 159.999344 496.000781 159.999344 516 168.000422 C 535.999219 175.999742 556.000781 175.999742 576 168.000422 C 595.999219 159.999344 616.000781 159.999344 636 168.000422 " transform="matrix(1.666667,0,0,2.223333,0,213.44)"/>
</g>
</svg>

<svg xmlns="http://www.w3.org/2000/svg" xmlns:xlink="http://www.w3.org/1999/xlink" viewBox="0 0 600 300"><defs><style>.str1{stroke:#000;stroke-width:.46;stroke-miterlimit:22.9256}.fil3{fill:none}</style></defs><path fill="#c81010" d="M0 0h600v162H0z"/><g id="bird"><path id="bird_outline" class="str1" d="M305.75 27.34c-19.08-7.89-30.76-9.34-43.81-9.47-18.9.13-27.92 8.25-45.94 9 7.14 7.69 33.02 9.57 43.93-.53 16.22 1.69 19.9 6.07 24.25 11.52-6.77-1.07-14.57-3.02-21.04 4.14-5.46 1.1-7.99 0-17.33 0-4.36 0-5.87 2.14-5.81 6 2.82-3.9 22.31-1.6 27.09 0 3.67 1.23 7.57 6.32 12.22 7.15 12.19 2.17 29.68-4.2 45.81-8.54L360 42h-23.93L366 36h-32.54c-.69-.79-2.34-1.81-3.66-2.68 8.37-5.39 15.77-15.19 17.66-19.92 15.09-.15 24.83-1.55 36.54-4.29-77.18-8.54-59.61.67-78.25 18.23z" fill="#f8d000"/><path id="eye" d="M270.06 39.89c.83 0 1.5.67 1.5 1.5s-.67 1.5-1.5 1.5c-.82 0-1.5-.67-1.5-1.5s.68-1.5 1.5-1.5z" fill="#000"/><path id="eye_outline" d="M270.06 39.89c.83 0 1.5.67 1.5 1.5s-.67 1.5-1.5 1.5c-.82 0-1.5-.67-1.5-1.5s.68-1.5 1.5-1.5z" fill="none" fill-rule="nonzero" stroke="#000" stroke-width=".15" stroke-miterlimit="22.926"/><path class="fil3 str1" d="M290.13 38.29S283.86 42 279.7 42m45.42 4.61S330.85 42 336.07 42M233.82 24.6s4.66-2.44 6.86-3.09m12.45-.39s7.39-3.19 15.62-3.03m4.36 3.81s9.69-1.63 18.64.36m-7.5 1.98s8.04-1.35 15.75.83m-7.48 1.62s8.19.11 12.26 1.69M216 26.87s11.49 3.14 20.83-1.35m-19.37 2.71s14.92 3.68 21.74-3.15m-16.74 5.73s11.24 3.62 20.08-5.72m-9.64 7.99s9.08-2.6 12.52-7.95m-5.42 8.1s6.09-4.22 8.28-7.98m70.18 3.22s2.38 2.99 11.34 4.85m-9.76-6.26s3.85 3.85 11.87 4.79m-9.93-6.6s3.91 3.36 12.42 4.61m-10.49-6.54s5.98 3.99 12.79 4.45m-10.43-6.97s4.19 3.91 12.5 4.88m-10.74-6.89s4.91 4.22 12.63 4.8m-10.9-6.9s3.01 3.48 12.94 4.39m-11.18-6.66s3.35 3.68 12.78 4.48m-11.41-6.35s5.9 4.45 12.73 4.36m-11.56-6.06s7.8 4.68 12.45 4.53m-11.03-6.69s6.2 3.86 11.98 4.71m-38.62 16.98s2.5 1.89 4.84 1.81m-3.4-3.21s2.17 1.85 5.15 1.84m-3.4-3.56s2.46 2.3 5.41 1.88m-3.75-3.54s2.94 2 5.57 1.94m-3.73-3.83s2.18 1.89 5.63 2.07m-3.99-4.15s2.56 2.27 5.82 2.35m-4.09-3.85s2.48 1.59 5.99 1.89m-4.42-3.64s3.35 1.18 6.42 1.47m-4.61-3.61s2.31 1.62 6.41 1.52m-4.78-3.66s2.74 1.82 6.26 1.86m-5.06-3.89s3.68 2.06 6.85 1.6m-5.51-4.03s2.33 2.55 6.67 2.46m-5.73-3.56s4.18 2.35 7.01 1.75m-5.24-3.08s3.17 1.93 6.07 1.85m-2.85-2.82s5.65 2.88 13.29-.24m-8.48 2.29s11.42 2.62 16.37-1.96m-7.41 2.64s7.85.82 16.63-1.96m-11.41 2.01s11.92 2.4 32.63.09M243.24 32.96s5.33-3.51 7.54-7.55m-3.55 6.9s4.29-4.16 5.54-6.74m-1.58 5.67s3.53-3.17 4.31-5.39m-21.55-.19s7.66-1.67 25.98.68m-18.9-3.74s6.42-3.11 12.14-4.06m-5.76 2.77s4.69-2.21 11.61-3.31m-.95 2.89s6.49-2.77 14.43-2.51m-6.22 2.56s8.9-1.99 17.1-.87m6.73 5.22s6.79-.31 14.6 1.63m-26.21-4.36s9.73-.52 16.4.71m43.77-14.7s3.36 2.91 12.72 4.76m-7.44-4.29s5.26 2.99 13.56 4.03m-8.04-3.99s7.38 3.21 15.18 3.41m-7.01-2.71s7.52 1.81 16.84 1.32m-112.07 9.68s5.1-2.1 14.14-1.93m19.49 9.57s3.06-.37 6.86 1.44"/><path class="fil3 str1" d="M284.18 37.86c2.11.33 4.12.58 5.95.43 7.16-3.91 12.05-7.58 15.62-10.95"/></g><g fill="#f8d000" stroke="#000" stroke-width=".46" stroke-miterlimit="22.926"><g id="rays_6"><g id="rays_2" transform="rotate(-84.706 300 156)"><path id="wavy" d="M290.63 105.87A50 50 0 01300 66a50 50 0 009.37 39.87" transform="rotate(13.4 300 156)"/><path id="straight" d="M290.63 105.87L300 63l9.37 42.87"/></g><use xlink:href="#rays_2" transform="rotate(21.18 300 156)"/><use xlink:href="#rays_2" transform="rotate(42.35 300 156)"/></g><use xlink:href="#rays_6" transform="rotate(63.53 300 156)"/><use xlink:href="#rays_6" transform="rotate(127.06 300 156)"/><circle cx="300" cy="156" r="51"/></g><path fill="#183070" d="M0 162h600v138H0z"/><path d="M-36 168q30-12 60 0t60 0 60 0 60 0q30-12 63 0t66 0q33-12 63 0t60 0 60 0 60 0 60 0" fill="none" stroke="#fff" stroke-width="24" id="wave"/><use xlink:href="#wave" y="48"/><use xlink:href="#wave" y="96"/></svg>
